X: 10281
M: 2/4
L: 1/16
K: Bb
V: 1 staves=3
|:\
f2f2f2b2 | d2d2d2f2 | B2cd edcB | f2F2F2 :: AB |\
c3d c3d | e3d c2B2 |
c3d B3d | e3dc2B2 | A2F2 GBAc | B4 z2 :: !p!d2 |\
g4 d2b2 | g4 d2b2 | g2b2d2b2 | g4 z2b2 |
a2a2 agfe | d2d2defg | a2a2a2a2 | d4 z2 :: !f!de |\
.f2.f2.f2 de | .f2.f2 .fedc | B2B2c2c2 | dcde d2de |\
.f2.f2.f2 de | .f2.f2 .fedc |
.d2.c2.d2.c2 | .B2.A2.G2.F2 | .G2.B2.A2.c2 | BABc B2Bc |\
.d2.c2.d2.c2 | .B2.A2.G2.F2 | G2B2 ABcA | B4 z2 :|
V: 2
|:\
d2d2d2f2 | B2B2B2d2 | D2DE F2ED | F2F2F2 :: FG |\
.d2.d2.d2 Bc | .d2.d2.d2 FE | D2D2A2A2 | BABc B2Bc |\
.d2.d2.d2 Bc | .d2.d2.d2F2 |
.B2.A2.B2.A2 | .G2.F2.E2.D2 | .E2.G2.C2.E2 | DCDE D2DF |\
.B2.A2.B2.A2 | .G2.F2.E2.D2 | E2G2 F2E2 | D4 z2 :|
V: 3 clef=bass middle=d
|:\
b2B2B2z2 | b2B2B2z2 | b2B2B2b2 | f2F2F2 :: z2 |\
f2f2f2f2 | f2f2f2f2 | f2f2f2f2 |
b2b2b2B2 |\
[a2f2][a2f2][a2f2][a2f2] | f2f2 f4 | f4 F4 | B4 z2 :: z2 |\
g4 z4 | g4 z4 | g4 g4 | g4 z4 |\
a4 z4 | d4 z4 |
a2a2a2a2 | d4 z2 :: z2 |\
.b2.b2.b2z2 | .b2.b2.b2z2 | b2b2 f2f2 | b2b2b2z2 |\
.b2.b2.b2z2 | .b2.b2.b2z2 |
b4 f4 | B4 z2 :: z2 |\
.b2z2 .b2z2 | .b2z2 .b2z2 | .e4 .f4 | B2B2B2z2 |\
.b2z2 .b2z2 | .b2z2 .b2z2 | e4 f4 | B4 z2 :|


